public/svg/linkedin.svg

<svg height="28" viewBox="0 0 25 28" width="25" xmlns="http://www.w3.org/2000/svg" xmlns:xlink="http://www.w3.org/1999/xlink"><linearGradient id="a" x1="50%" x2="50%" y1="0%" y2="100%"><stop offset="0" stop-color="#4ebbed"/><stop offset="1" stop-color="#5c6ddd"/></linearGradient><g fill="url(#a)"><path d="m5.98848096 8h-4.9767367c-.55790081 0-1.01174426.43682797-1.01174426.973812v18.0525928c0 .5367672.45384345.9735952 1.01174426.9735952h4.9767367c.5576756 0 1.01151904-.436828 1.01151904-.9735952v-18.0525928c0-.53698403-.45384344-.973812-1.01151904-.973812zm-.72074391 18.332683h-3.5354741v-16.66536596h3.5354741z"/><path d="m3.50011169 0c-1.9301101 0-3.50011169 1.57000159-3.50011169 3.49988831 0 1.9301101 1.57000159 3.50011169 3.50011169 3.50011169 1.92966328 0 3.49988831-1.57000159 3.49988831-3.50011169 0-1.92988672-1.57000159-3.49988831-3.49988831-3.49988831zm0 5.28188925c-.98270306 0-1.78200094-.79929794-1.78200094-1.78200094 0-.98247968.79929788-1.78177756 1.78200094-1.78177756.98247962 0 1.78177756.79929788 1.78177756 1.78177756 0 .98247963-.79929794 1.78200094-1.78177756 1.78200094z"/><path d="m22.0455123 10.1163081c-1.106859-.95582901-2.5140073-1.46702079-3.9607612-1.43927161-.8985633.01712646-1.7765904.24128772-2.5722631.64711938v-.39412495c0-.51357654-.4025513-.93003092-.8989824-.93003092h-4.71452327c-.49643104 0-.89898233.41645438-.89898233.93003092v18.13993818c0 .5137933.40255129.9300309.89898233.9300309h4.80756487c.4450905 0 .8059408-.3733131.8059408-.8335591v-10.8154572c0-.9259119.7003261-1.7093925 1.5946984-1.7369248.929577-.0283996 1.6944455.7453254 1.6944455 1.7007208v10.8690044c0 .4507072.3533063.8162159.788967.8162159h4.620434c.4356607 0 .7889671-.3655087.7889671-.8162159v-10.538399c0-2.5277763-1.0768929-4.9077015-2.9544877-6.529077zm1.3428156 16.2163568h-2.9748144v-10.0178852c0-1.8574603-1.4607939-3.3687063-3.2564535-3.3687063-1.7954501 0-3.2562441 1.511246-3.2562441 3.3687063v10.0178852h-3.2891438v-16.66554656h3.2891438v1.21164166h.0010478c-.0002096.1964121.0657996.3936914.20159.5525987.2948411.3446968.8042644.3767818 1.1374536.0715409.7939963-.7271151 1.8145195-1.1385833 2.8736003-1.1589616 1.0601286-.0208119 2.0890339.3533684 2.8983275 1.0523007 1.5098293 1.3037776 2.3754928 3.216953 2.3754928 5.2491464z"/></g></svg>

<?xml version="1.0" encoding="UTF-8"?>
<svg width="25px" height="28px" viewBox="0 0 25 28" version="1.1" xmlns="http://www.w3.org/2000/svg" xmlns:xlink="http://www.w3.org/1999/xlink">
    <title>linkedin</title>
    <defs>
        <linearGradient x1="50%" y1="0%" x2="50%" y2="100%" id="linearGradient-1">
            <stop stop-color="#4EBBED" offset="0%"></stop>
            <stop stop-color="#5C6DDD" offset="100%"></stop>
        </linearGradient>
        <linearGradient x1="50%" y1="0%" x2="50%" y2="100%" id="linearGradient-2">
            <stop stop-color="#4EBBED" offset="0%"></stop>
            <stop stop-color="#5C6DDD" offset="100%"></stop>
        </linearGradient>
        <linearGradient x1="50%" y1="0%" x2="50%" y2="100%" id="linearGradient-3">
            <stop stop-color="#4EBBED" offset="0%"></stop>
            <stop stop-color="#5C6DDD" offset="100%"></stop>
        </linearGradient>
    </defs>
    <g id="Page-1" stroke="none" stroke-width="1" fill="none" fill-rule="evenodd">
        <g id="workers-personnal-desktop" transform="translate(-566.000000, -944.000000)" fill-rule="nonzero">
            <g id="linkedin" transform="translate(566.000000, 944.000000)">
                <path d="M5.98848096,8 L1.01174426,8 C0.453843445,8 0,8.43682797 0,8.973812 L0,27.0264048 C0,27.563172 0.453843445,28 1.01174426,28 L5.98848096,28 C6.54615656,28 7,27.563172 7,27.0264048 L7,8.973812 C7,8.43682797 6.54615656,8 5.98848096,8 Z M5.26773705,26.332683 L1.73226295,26.332683 L1.73226295,9.66731704 L5.26773705,9.66731704 L5.26773705,26.332683 Z" id="Shape" fill="url(#linearGradient-1)"></path>
                <path d="M3.50011169,0 C1.57000159,0 0,1.57000159 0,3.49988831 C0,5.42999841 1.57000159,7 3.50011169,7 C5.42977497,7 7,5.42999841 7,3.49988831 C7,1.57000159 5.42999841,0 3.50011169,0 Z M3.50011169,5.28188925 C2.51740863,5.28188925 1.71811075,4.48259131 1.71811075,3.49988831 C1.71811075,2.51740863 2.51740863,1.71811075 3.50011169,1.71811075 C4.48259131,1.71811075 5.28188925,2.51740863 5.28188925,3.49988831 C5.28188925,4.48236794 4.48259131,5.28188925 3.50011169,5.28188925 Z" id="Shape" fill="url(#linearGradient-2)"></path>
                <path d="M22.0455123,10.1163081 C20.9386533,9.16047909 19.531505,8.64928731 18.0847511,8.67703649 C17.1861878,8.69416295 16.3081607,8.91832421 15.512488,9.32415587 L15.512488,8.93003092 C15.512488,8.41645438 15.1099367,8 14.6135056,8 L9.89898233,8 C9.40255129,8 9,8.41645438 9,8.93003092 L9,27.0699691 C9,27.5837624 9.40255129,28 9.89898233,28 L14.7065472,28 C15.1516377,28 15.512488,27.6266869 15.512488,27.1664409 L15.512488,16.3509837 C15.512488,15.4250718 16.2128141,14.6415912 17.1071864,14.6140589 C18.0367634,14.5856593 18.8016319,15.3593843 18.8016319,16.3147797 L18.8016319,27.1837841 C18.8016319,27.6344913 19.1549382,28 19.5905989,28 L24.2110329,28 C24.6466936,28 25,27.6344913 25,27.1837841 L25,16.6453851 C25,14.1176088 23.9231071,11.7376836 22.0455123,10.1163081 L22.0455123,10.1163081 Z M23.3883279,26.3326649 L20.4135135,26.3326649 L20.4135135,16.3147797 C20.4135135,14.4573194 18.9527196,12.9460734 17.15706,12.9460734 C15.3616099,12.9460734 13.9008159,14.4573194 13.9008159,16.3147797 L13.9008159,26.3326649 L10.6116721,26.3326649 L10.6116721,9.66711834 L13.9008159,9.66711834 L13.9008159,10.87876 L13.9018637,10.87876 C13.9016541,11.0751721 13.9676633,11.2724514 14.1034537,11.4313587 C14.3982948,11.7760555 14.9077181,11.8081405 15.2409073,11.5028996 C16.0349036,10.7757845 17.0554268,10.3643163 18.1145076,10.343938 C19.1746362,10.3231261 20.2035415,10.6973064 21.0128351,11.3962387 C22.5226644,12.7000163 23.3883279,14.6131917 23.3883279,16.6453851 L23.3883279,26.3326649 Z" id="Shape" fill="url(#linearGradient-3)"></path>
            </g>
        </g>
    </g>
</svg>
